X:1
T:Title
%%score { ( 1 3 ) | ( 2 4 ) }
L:1/8
M:4/4
K:G
V:1 treble nm="Grand Piano"
V:3 treble 
V:2 bass 
V:4 bass 
V:1
 z4 z2[Q:1/4=108] G2 | B3 A G3 D | E2 G2 D2 G2 | B3 B d2 [DGd]2 |[M:3/4] [DFA]6 |[M:1/4] G2 | %6
[M:4/4] B3 A G3 D | E2 G2 D2 G2 | [GB]3 [GB] [GB]2 [CFA]2 |[M:3/4] [B,G]6 |[M:1/4] B2 | %11
[M:4/4] d3 d [Ge]2 [Ge]2 | [Gd]6 z2 | B3 B [Ac]2 [GB]2 |[M:3/4] [FA]6 |[M:1/4] B2 | %16
[M:4/4] d3 d [Ge]2 [Ge]2 | d2 c2 B2 [Ge]2 | [Gd]3 [GB] [GB]2 [CDA]2 |[M:3/4] G6 |] %20
V:2
 z4 z2 [G,B,D]2 | [G,D]3 [G,CD] [G,B,D]3 [B,,G,] | [C,G,C]2 [E,G,C]2 [G,B,]2[K:treble] [G,B,D]2 | %3
 [G,DG]3 [G,DG] [G,B,G]2[K:bass] B,,2 |[M:3/4] D,6 |[M:1/4] [G,B,D]2 | %6
[M:4/4] [G,D]3 [G,CD] [G,B,D]3 [B,,G,] | [C,G,C]2 [E,G,C]2 [G,B,]2 [G,B,D]2 | %8
 [D,D]3 [D,D] [D,D]2 D,2 |[M:3/4] G,,6 |[M:1/4][K:treble] [G,DG]2 | %11
[M:4/4] [G,B,G]3 [G,B,G][K:bass] [C,C]2 [C,C]2 | [G,B,]2 G,2 G,2[K:treble] [G,B,D]2 | %13
 [G,DG]3 [G,DG][K:bass] [F,D]2 [G,D]2 |[M:3/4] [D,D]2 D,2 D,2 |[M:1/4][K:treble] [G,DG]2 | %16
[M:4/4] [G,B,G]3 [G,B,G][K:bass] [C,C]2 [C,C]2 | [G,B,G]2 [G,EG]2 [G,DG]2[K:bass] [C,C]2 | %18
 [D,B,]3 [D,D] [D,D]2 D,2 |[M:3/4] z2 C2 B,2 |] %20
V:3
 x8 | x8 | x8 | x8 |[M:3/4] x6 |[M:1/4] x2 |[M:4/4] x8 | x8 | x8 |[M:3/4] x6 |[M:1/4] x2 | %11
[M:4/4] x8 | z2 B,2 B,2 G2 | x8 |[M:3/4] z2 D2 D2 |[M:1/4] x2 |[M:4/4] x8 | x8 | x8 | %19
[M:3/4] [B,D]2 E2 D2 |] %20
V:4
 x8 | x8 | x6[K:treble] x2 | x6[K:bass] x2 |[M:3/4] x6 |[M:1/4] x2 |[M:4/4] x8 | x8 | x8 | %9
[M:3/4] x6 |[M:1/4][K:treble] x2 |[M:4/4] x4[K:bass] x4 | x6[K:treble] x2 | x4[K:bass] x4 | %14
[M:3/4] x6 |[M:1/4][K:treble] x2 |[M:4/4] x4[K:bass] x4 | x6[K:bass] x2 | x8 |[M:3/4] G,,6 |] %20

